src/assets/icons/wallet.svg

<svg width="20" height="18" viewBox="0 0 20 18" fill="none" xmlns="http://www.w3.org/2000/svg">
<path d="M10.3066 11.9183V5.10847C10.3066 4.29533 10.9658 3.63613 11.7789 3.63613H18.7715V1.47213C18.7715 0.659611 18.1123 0 17.2991 0H1.47213C0.659407 0 0 0.659407 0 1.47213V15.554C0 16.367 0.659203 17.0268 1.47213 17.0268H17.2989C18.1118 17.0268 18.7713 16.3672 18.7713 15.554V13.3903H11.7787C10.9647 13.3903 10.3066 12.7304 10.3066 11.9183Z" fill="white"/>
<path d="M18.8243 4.61829H12.5769C11.9271 4.61829 11.4001 5.14459 11.4001 5.79419V11.2332C11.4001 11.8824 11.9271 12.4089 12.5769 12.4089H18.8243C19.4741 12.4089 20 11.8824 20 11.2332V5.79399C20 5.14459 19.4741 4.61829 18.8243 4.61829ZM14.3744 9.54894C13.8024 9.54894 13.3388 9.08531 13.3388 8.51348C13.3388 7.94125 13.8024 7.47783 14.3744 7.47783C14.9465 7.47783 15.4103 7.94125 15.4103 8.51348C15.4103 9.08551 14.9465 9.54894 14.3744 9.54894Z" fill="#00DBB9"/>
</svg>

<?xml version="1.0" encoding="utf-8"?>
<!-- Generator: Adobe Illustrator 26.0.3, SVG Export Plug-In . SVG Version: 6.00 Build 0)  -->
<svg version="1.1" id="Layer_1" xmlns="http://www.w3.org/2000/svg" xmlns:xlink="http://www.w3.org/1999/xlink" x="0px" y="0px"
	 viewBox="0 0 20 18" style="enable-background:new 0 0 20 18;" xml:space="preserve">
<style type="text/css">
	.st0{fill:#FFFFFF;}
	.st1{fill:#004BAF;}
</style>
<path class="st0" d="M10.3,11.9V5.1c0-0.8,0.7-1.5,1.5-1.5h7V1.5c0-0.8-0.7-1.5-1.5-1.5H1.5C0.7,0,0,0.7,0,1.5v14.1
	C0,16.4,0.7,17,1.5,17h15.8c0.8,0,1.5-0.7,1.5-1.5v-2.2h-7C11,13.4,10.3,12.7,10.3,11.9z"/>
<path class="st1" d="M18.8,4.6h-6.2c-0.6,0-1.2,0.5-1.2,1.2v5.4c0,0.6,0.5,1.2,1.2,1.2h6.2c0.6,0,1.2-0.5,1.2-1.2V5.8
	C20,5.1,19.5,4.6,18.8,4.6z M14.4,9.5c-0.6,0-1-0.5-1-1c0-0.6,0.5-1,1-1c0.6,0,1,0.5,1,1C15.4,9.1,14.9,9.5,14.4,9.5z"/>
</svg>
